src/assets/svg/store-icon.svg

<svg width="40" height="38" viewBox="0 0 40 38" fill="none" xmlns="http://www.w3.org/2000/svg">
<path d="M40 12C39.9999 11.6371 39.901 11.281 39.714 10.97L34.296 1.94C33.9391 1.34968 33.4362 0.861145 32.8359 0.521384C32.2355 0.181623 31.5578 0.00207106 30.868 0H9.132C7.736 0 6.422 0.744 5.704 1.942L0.286 10.97C0.0989798 11.281 0.000114862 11.6371 0 12C0 14.01 0.772 15.828 2 17.236V36C2 36.5304 2.21071 37.0391 2.58579 37.4142C2.96086 37.7893 3.46957 38 4 38H20C20.5304 38 21.0391 37.7893 21.4142 37.4142C21.7893 37.0391 22 36.5304 22 36V26H30V36C30 36.5304 30.2107 37.0391 30.5858 37.4142C30.9609 37.7893 31.4696 38 32 38H36C36.5304 38 37.0391 37.7893 37.4142 37.4142C37.7893 37.0391 38 36.5304 38 36V17.236C39.228 15.828 40 14.01 40 12ZM35.968 12.502C35.8458 13.4682 35.3753 14.3565 34.6448 15.0005C33.9142 15.6445 32.9739 15.9999 32 16C29.794 16 28 14.206 28 12C28 11.864 27.95 11.744 27.922 11.616L27.962 11.608L26.44 4H30.868L35.968 12.502ZM16.014 12.13L17.638 4H22.36L23.986 12.13C23.916 14.276 22.16 16 20 16C17.84 16 16.084 14.276 16.014 12.13ZM9.132 4H13.56L12.04 11.608L12.08 11.616C12.05 11.744 12 11.864 12 12C12 14.206 10.206 16 8 16C7.02614 15.9999 6.08577 15.6445 5.35524 15.0005C4.62471 14.3565 4.15422 13.4682 4.032 12.502L9.132 4ZM16 28H8V22H16V28Z" fill="#00C700"/>
</svg>

<svg xmlns="http://www.w3.org/2000/svg" width="40" height="38" fill="none"><path fill="#00C700" d="M40 12a2 2 0 0 0-.286-1.03l-5.418-9.03A4.02 4.02 0 0 0 30.868 0H9.132c-1.396 0-2.71.744-3.428 1.942L.286 10.97A2 2 0 0 0 0 12c0 2.01.772 3.828 2 5.236V36a2 2 0 0 0 2 2h16a2 2 0 0 0 2-2V26h8v10a2 2 0 0 0 2 2h4a2 2 0 0 0 2-2V17.236c1.228-1.408 2-3.226 2-5.236m-4.032.502A4 4 0 0 1 28 12c0-.136-.05-.256-.078-.384l.04-.008L26.44 4h4.428zm-19.954-.372L17.638 4h4.722l1.626 8.13A3.996 3.996 0 0 1 20 16a3.996 3.996 0 0 1-3.986-3.87M9.132 4h4.428l-1.52 7.608.04.008c-.03.128-.08.248-.08.384a4 4 0 0 1-7.968.502zM16 28H8v-6h8z"/></svg>
